X:21034 
T:COME WEST ALONG THE ROAD (reel)
B:DMI.0793
Z:Nordberg/Black
R:reel
%Q:1/4=180
M:C|
L:1/8
K:G
d2BG dGBG|G2Bd efge|d2BG dGBG|ABcd edce|
d2BG dGBG|G2Bd efge|d2BG dGBG|ABcd edBd||
g2bg egdg|egdg edBd|g2bg egdB|BABd edBd|
g2bg egdg|egdg edBd|gabg efge|dega bage||
"final"Hg4z4|]

%%%

